packages/sources/icons/src/vitamix/money-euro-box-fill.svg

<svg width="16" height="16" viewBox="0 0 16 16" fill="none" xmlns="http://www.w3.org/2000/svg">
<path fill-rule="evenodd" clip-rule="evenodd" d="M14 2H1.99999C1.63181 2 1.33333 2.29848 1.33333 2.66667V13.3333C1.33333 13.7015 1.63181 14 1.99999 14H14C14.3682 14 14.6667 13.7015 14.6667 13.3333V2.66667C14.6667 2.29848 14.3682 2 14 2ZM7.78683 6.09137C7.23062 6.28435 6.81749 6.75645 6.7 7.33333V7.334H10V8.66733L6.7 8.66667C6.81768 9.24344 7.23088 9.71535 7.78706 9.90818C8.34324 10.101 8.95988 9.98615 9.40933 9.606L10.5433 10.362C9.74811 11.2287 8.51975 11.5507 7.40161 11.1856C6.28346 10.8205 5.48184 9.83565 5.35133 8.66667H4.66666V7.33333H5.35199C5.48273 6.16465 6.28422 5.18013 7.40209 4.81506C8.51996 4.45 9.74804 4.77173 10.5433 5.638L9.40933 6.39333C8.95979 6.01318 8.34304 5.8984 7.78683 6.09137Z" fill="#001018"/>
</svg>

<svg width="16" height="16" fill="none" xmlns="http://www.w3.org/2000/svg"><path fill-rule="evenodd" clip-rule="evenodd" d="M14 2H2a.667.667 0 0 0-.667.667v10.666c0 .368.299.667.667.667h12a.667.667 0 0 0 .667-.667V2.667A.667.667 0 0 0 14 2zM7.787 6.091c-.556.193-.97.665-1.087 1.242v.001H10v1.333H6.7a1.667 1.667 0 0 0 2.71.939l1.133.756a3 3 0 0 1-5.192-1.695h-.684V7.333h.685a3 3 0 0 1 5.191-1.695l-1.134.755a1.667 1.667 0 0 0-1.622-.302z" fill="#001018"/></svg>
